X:45
%%score 1 2
T:Pepper is Black
M:6/8
L:1/8
K:G
V:1 clef-treble
V:2 clef-bass octave=-1
V:1
[B,G]|[A,F]2D A2[B,G]|(F>E)D A2D & A,2x4|G>AG (A>B)(c/d/) & D3 D3|[DB]3 G2[B,G]|
w:Look up, my lords, and mark* my words, And hear* what I* shall* sing ye; And
V:2
G|D2z z2G|D2z z2D|B,3 F,3|G,3-G,2G,|
V:1
(A>B)c (cd)c & E3 E3|(A>B)c (c>B)c & E3 E3|B2c (d>e)c & G3 F3|[GB]3 G2||
w:sub* jects all,* both great* and small,* Now mark what words* I bring ye.
V:2
C3A,3|C3A,3|D3D,3|G,3-G,2||

